X:2
T:Pleyels German Hymn
N:page 11 on manuscript
M:2/4
L:1/8
K:C
e2 g2 | d3 e | f2 d>e | e4 | e2 g2 | d3 e | f2 d>e | c4 || d2 e2 | c3 d |
B2 TA>G | G4 | e2 g2 | d3 e | f2 d>e | e4 e2 g2 | d3 e | f2 Td2 | c4 ||

